images/small-shape-2.svg

<svg width="491" height="110" viewBox="0 0 491 110" fill="none" xmlns="http://www.w3.org/2000/svg">
<g clip-path="url(#clip0_851_4419)">
<path d="M-313.302 386.883C-426.338 364.691 -575.978 304.785 -567.897 214.909C-564.518 177.032 -527.336 136.751 -484.88 104.157C-411.39 49.6796 -342.413 21.2086 -297.718 25.9C-269.162 28.7442 -242.611 44.9001 -218.955 73.5224C-201.421 95.0732 -186.037 121.662 -171.573 150.075C-164.978 163.019 -158.608 176.354 -152.378 189.755C-109.983 116.078 -65.7122 56.1202 -21.1348 32.8045C10.5713 15.2141 89.3872 35.2844 152.616 100.274C248.157 198.011 155.064 289.935 59.904 339.022C-49.8823 395.663 -188.26 411.889 -313.24 386.924L-313.267 386.866L-313.302 386.883Z" fill="#D0DEF6"/>
<path d="M431.14 369.387C317.936 347.161 168.073 287.167 176.165 197.156C179.55 159.223 216.787 118.882 259.307 86.2392C332.906 31.6811 401.986 3.16764 446.748 7.86608C475.346 10.7145 501.937 26.8944 525.627 55.5594C543.188 77.1424 558.595 103.77 573.081 132.226C579.685 145.19 586.065 158.544 592.304 171.965C634.762 98.1781 679.099 38.1313 723.743 14.7808C755.496 -2.83577 834.429 17.2645 897.752 82.3513C993.436 180.233 900.205 272.295 804.902 321.455C694.952 378.18 556.368 394.43 431.203 369.428L431.175 369.37L431.14 369.387Z" fill="#D0DEF6"/>
</g>
<defs>
<clipPath id="clip0_851_4419">
<rect width="491" height="110" fill="white"/>
</clipPath>
</defs>
</svg>

<svg xmlns="http://www.w3.org/2000/svg" width="491" height="110" fill="none" viewBox="0 0 491 110"><g fill="#d0def6" clip-path="url(#a)"><path d="M-313.302 386.883c-113.036-22.192-262.676-82.098-254.595-171.974 3.379-37.877 40.561-78.158 83.017-110.752C-411.39 49.68-342.413 21.209-297.718 25.9c28.556 2.844 55.107 19 78.763 47.622 17.534 21.551 32.918 48.14 47.382 76.553 6.595 12.944 12.965 26.279 19.195 39.68 42.395-73.677 86.666-133.635 131.243-156.95 31.706-17.59 110.522 2.48 173.751 67.469 95.541 97.737 2.448 189.661-92.712 238.748-109.786 56.641-248.164 72.867-373.144 47.902l-.027-.058z"/><path d="M431.14 369.387c-113.204-22.226-263.067-82.22-254.975-172.231 3.385-37.933 40.622-78.274 83.142-110.917C332.906 31.681 401.986 3.168 446.748 7.866c28.598 2.848 55.189 19.028 78.879 47.693 17.561 21.583 32.968 48.211 47.454 76.667 6.604 12.964 12.984 26.318 19.223 39.739 42.458-73.787 86.795-133.834 131.439-157.184 31.753-17.617 110.686 2.484 174.009 67.57 95.684 97.882 2.453 189.944-92.85 239.104-109.95 56.725-248.534 72.975-373.699 47.973l-.028-.058z"/></g><defs><clipPath id="a"><path fill="#fff" d="M0 0h491v110H0z"/></clipPath></defs></svg>
